markup/sourceimages/icon6.svg

<svg xmlns="http://www.w3.org/2000/svg" width="66" height="60"><path fill-rule="evenodd" fill="#191816" d="M65.716 49.856a.969.969 0 0 1-.683.281h-.138v8.904a.963.963 0 0 1-.967.959.963.963 0 0 1-.967-.959v-8.904h-2.484v8.904a.963.963 0 0 1-.967.959.963.963 0 0 1-.967-.959V46.986c0-.53.433-.959.967-.959s.967.429.967.959v1.233h3.589v-4.487c0-.957-.579-1.806-1.475-2.162L58.9 40.106c-1.294 3.998-5.05 6.743-9.331 6.743a9.848 9.848 0 0 1-7.091-3.011 8.672 8.672 0 0 1-4.093 5.177v1.565c0 .058.038.111.094.129l3.607 1.193a4.244 4.244 0 0 1 2.926 4.029v3.109c0 .53-.432.96-.966.96a.964.964 0 0 1-.967-.96v-3.109a2.327 2.327 0 0 0-1.605-2.209l-1.06-.351a7.608 7.608 0 0 1-6.31 3.341 7.614 7.614 0 0 1-6.309-3.341l-1.06.351a2.327 2.327 0 0 0-1.605 2.209v3.109c0 .53-.433.96-.967.96a.964.964 0 0 1-.967-.96v-3.109a4.245 4.245 0 0 1 2.927-4.029l3.607-1.193a.137.137 0 0 0 .094-.129v-1.565c-2.635-1.484-4.418-4.293-4.418-7.509v-.136h-.138a3.183 3.183 0 0 1-2.563-1.293 10.917 10.917 0 0 1-5.169 1.293c-5.066 0-9.455-3.506-10.611-8.307l-3.319.988a2.317 2.317 0 0 0-1.672 2.23v9.746H6.628v-3.525c0-.462-.137-.908-.395-1.291l-1.652-2.46a.955.955 0 0 1 .268-1.33.972.972 0 0 1 1.341.266l1.652 2.459c.471.7.719 1.515.719 2.356V59.04c0 .53-.433.96-.967.96a.964.964 0 0 1-.967-.96V47.945H3.038V59.04c0 .53-.433.96-.967.96a.963.963 0 0 1-.966-.96V47.945H.967A.963.963 0 0 1 0 46.986V36.281c0-1.89 1.226-3.524 3.05-4.067l7.996-2.38v-2.651c-2.471-1.821-4.144-4.65-4.388-7.87a3.16 3.16 0 0 1-2.24-3.012c0-.953.429-1.807 1.105-2.385V8.63C5.523 3.871 9.425 0 14.222 0h8.836a4.245 4.245 0 0 1 4.12 3.131c1.472.991 2.37 2.64 2.37 4.403v6.382a3.133 3.133 0 0 1 1.105 2.385 3.16 3.16 0 0 1-2.24 3.012 10.713 10.713 0 0 1-.558 2.683c.018.008.036.014.054.023l6.195 3.073 2.111-1.047c.146-2.277.236-4.682.236-6.648 0-7.176 5.885-13.014 13.118-13.014 7.233 0 13.117 5.838 13.117 13.014 0 7.516 1.084 15.131 1.095 15.207a.955.955 0 0 1-.344.877c-.11.09-2.588 2.065-7.819 3.245.038.02.076.041.117.058l7.574 3.005A4.227 4.227 0 0 1 66 43.732v5.446a.954.954 0 0 1-.284.678zm-35.991 2.877a5.68 5.68 0 0 0 4.38 2.061 5.678 5.678 0 0 0 4.38-2.061l-.617-.204a2.054 2.054 0 0 1-1.416-1.949v-.765a8.738 8.738 0 0 1-4.694 0v.765c0 .885-.57 1.669-1.417 1.949l-.616.204zm-5.707-21.919a10.838 10.838 0 0 1 2.492-3.65v-2.53a10.933 10.933 0 0 1-2.485 2.549v3.365c0 .089-.003.178-.007.266zM8.782 32.511c.91 4.004 4.548 6.94 8.754 6.94a8.985 8.985 0 0 0 4.556-1.232c0-.916.412-1.784 1.104-2.377v-.911c0-.475.032-.947.094-1.412a6.501 6.501 0 0 1-5.754 3.467c-3.147 0-5.777-2.233-6.366-5.186l-2.388.711zm13.31-1.964v-2.223a10.906 10.906 0 0 1-4.556.991c-1.626 0-3.169-.355-4.556-.991V30.56c.007 2.486 2.048 4.508 4.556 4.508 2.512 0 4.556-2.028 4.556-4.521zm6.627-14.246c0-.68-.557-1.232-1.242-1.232h-1.105a.963.963 0 0 1-.966-.96c0-.529.433-.959.966-.959h1.105c.046 0 .092.002.138.004v-5.62c0-1.22-.678-2.357-1.77-2.968a.959.959 0 0 1-.48-.685 2.323 2.323 0 0 0-2.306-1.963h-8.837c-3.731 0-6.766 3.011-6.766 6.712v4.524l.138-.003h1.513l.884-2.632a.965.965 0 0 1 .917-.656c.086 0 8.662-.027 12.823-2.091a.97.97 0 0 1 1.297.429.956.956 0 0 1-.432 1.287c-3.879 1.924-10.766 2.234-12.988 2.284l-.887 2.641a.966.966 0 0 1-.917.656h-2.21c-.685 0-1.242.553-1.242 1.232 0 .68.557 1.233 1.242 1.233.534 0 .967.429.967.959 0 4.91 4.026 8.904 8.975 8.904 4.948 0 8.974-3.995 8.974-8.904 0-.53.433-.959.967-.959.685 0 1.242-.553 1.242-1.233zm-.275 8.128V27.9l3.499-1.736-3.499-1.735zm5.661 2.807l-6.196 3.074a.978.978 0 0 1-.94-.042.965.965 0 0 1-.308-.305 8.866 8.866 0 0 0-1.531 4.968v.112c2.549-.101 9.557-.608 14.018-3.137a.971.971 0 0 1 1.319.358.954.954 0 0 1-.36 1.308c-5.092 2.887-12.839 3.333-15.229 3.402a.938.938 0 0 1-.228.186 1.217 1.217 0 0 0-.625 1.059 1.24 1.24 0 0 0 1.243 1.232h1.104c.534 0 .967.43.967.959v1.096c0 3.702 3.035 6.713 6.766 6.713 3.73 0 6.765-3.011 6.765-6.713v-.117-.979c0-.529.433-.959.967-.959h1.104a1.24 1.24 0 0 0 1.243-1.232c0-.438-.233-.833-.624-1.059a.958.958 0 0 1-.481-.829v-1.4a8.858 8.858 0 0 0-1.531-4.968.955.955 0 0 1-.816.448.981.981 0 0 1-.432-.101l-6.195-3.074zm2.161-1.072l3.499 1.736v-3.471l-3.499 1.735zm25.522 6.129c-.254-1.944-1.035-8.455-1.035-14.896 0-6.118-5.017-11.095-11.184-11.095-6.167 0-11.184 4.977-11.184 11.095 0 1.761-.058 3.66-.173 5.657l2.088-1.035a.97.97 0 0 1 .94.042.956.956 0 0 1 .459.816v4.287a10.834 10.834 0 0 1 2.647 4.048 8.946 8.946 0 0 0 5.223 1.664 8.913 8.913 0 0 0 5.637-1.975 8.93 8.93 0 0 0 3.115-4.949 8.862 8.862 0 0 0 .222-1.979c0-3.676-2.131-4.266-6.216-5.071-2.114-.416-4.462-.879-6.559-2.111-.507 1.275-1.751 2.972-4.801 3.729a.969.969 0 0 1-1.173-.698.959.959 0 0 1 .704-1.163c3.644-.904 3.686-3.428 3.686-3.453a.96.96 0 0 1 .548-.865.974.974 0 0 1 1.023.116c2.002 1.589 4.517 2.084 6.948 2.563 3.822.753 7.774 1.531 7.774 6.953 0 .811-.091 1.619-.27 2.404a10.856 10.856 0 0 1-5.253 7.005v1.526c3.75-.814 5.968-2.052 6.834-2.615zm-6.771 6.272a3.138 3.138 0 0 1-1.997-2.926v-1.405a10.966 10.966 0 0 1-8.069-.453c.041.38.062.764.062 1.15v.911a3.141 3.141 0 0 1 1.104 2.377c0 1.73-1.413 3.138-3.153 3.15a7.894 7.894 0 0 0 6.605 3.562c3.482 0 6.533-2.262 7.533-5.539l-2.085-.827zM45.15 20.822c.534 0 .967.429.967.959v1.095c0 .53-.433.96-.967.96a.963.963 0 0 1-.966-.96v-1.095c0-.53.433-.959.966-.959zm2.961 5.834c.39.477.908.741 1.458.741.55 0 1.068-.264 1.458-.741a.971.971 0 0 1 1.36-.141.954.954 0 0 1 .142 1.349c-.754.922-1.833 1.451-2.96 1.451-1.128 0-2.207-.529-2.96-1.451a.954.954 0 0 1 .142-1.349.972.972 0 0 1 1.36.141zm5.876-5.834c.534 0 .967.429.967.959v1.095c0 .53-.433.96-.967.96a.964.964 0 0 1-.967-.96v-1.095c0-.53.433-.959.967-.959zM37.383 40.278a.963.963 0 0 1-.967-.959c0-.53.433-.959.967-.959s.967.429.967.959-.433.959-.967.959zm-.318 4.024c-.754.922-1.833 1.451-2.96 1.451-1.128 0-2.207-.529-2.96-1.451a.953.953 0 0 1 .142-1.349.972.972 0 0 1 1.359.141c.391.478.909.741 1.459.741.549 0 1.067-.263 1.458-.741a.972.972 0 0 1 1.36-.141.955.955 0 0 1 .142 1.349zm-6.256-4.024a.963.963 0 0 1-.967-.959c0-.53.433-.959.967-.959.533 0 .966.429.966.959s-.433.959-.966.959zm-8.855-21.922a.963.963 0 0 1-.967-.959v-1.096c0-.53.433-.959.967-.959s.967.429.967.959v1.096c0 .53-.433.959-.967.959zm-4.418 5.48c-1.128 0-2.207-.529-2.96-1.451a.953.953 0 0 1 .142-1.349.97.97 0 0 1 1.359.141c.391.477.909.741 1.459.741s1.067-.264 1.458-.741a.971.971 0 0 1 1.36-.141.955.955 0 0 1 .142 1.349c-.754.922-1.833 1.451-2.96 1.451zm-4.419-5.48a.962.962 0 0 1-.966-.959v-1.096c0-.53.432-.959.966-.959s.967.429.967.959v1.096c0 .53-.433.959-.967.959z"/></svg>

<svg 
 xmlns="http://www.w3.org/2000/svg"
 xmlns:xlink="http://www.w3.org/1999/xlink"
 width="66px" height="60px">
<path fill-rule="evenodd"  fill="rgb(25, 24, 22)"
 d="M65.716,49.856 C65.535,50.036 65.289,50.137 65.033,50.137 L64.895,50.137 L64.895,59.041 C64.895,59.570 64.462,60.000 63.928,60.000 C63.394,60.000 62.961,59.570 62.961,59.041 L62.961,50.137 L60.477,50.137 L60.477,59.041 C60.477,59.570 60.044,60.000 59.510,60.000 C58.976,60.000 58.543,59.570 58.543,59.041 L58.543,46.986 C58.543,46.456 58.976,46.027 59.510,46.027 C60.044,46.027 60.477,46.456 60.477,46.986 L60.477,48.219 L63.928,48.219 L64.066,48.219 L64.066,43.732 C64.066,42.775 63.487,41.926 62.591,41.570 L58.900,40.106 C57.606,44.104 53.850,46.849 49.569,46.849 C46.857,46.849 44.305,45.735 42.478,43.838 C41.852,46.050 40.358,47.904 38.385,49.015 L38.385,50.580 C38.385,50.638 38.423,50.691 38.479,50.709 L42.086,51.902 C43.836,52.481 45.012,54.100 45.012,55.931 L45.012,59.040 C45.012,59.570 44.580,60.000 44.046,60.000 C43.512,60.000 43.079,59.570 43.079,59.040 L43.079,55.931 C43.079,54.927 42.434,54.039 41.474,53.722 L40.414,53.371 C39.011,55.448 36.654,56.712 34.104,56.712 C31.558,56.712 29.198,55.447 27.795,53.371 L26.735,53.722 C25.775,54.039 25.130,54.927 25.130,55.931 L25.130,59.040 C25.130,59.570 24.697,60.000 24.163,60.000 C23.629,60.000 23.196,59.570 23.196,59.040 L23.196,55.931 C23.196,54.100 24.373,52.481 26.123,51.902 L29.730,50.709 C29.786,50.690 29.824,50.638 29.824,50.580 L29.824,49.015 C27.189,47.531 25.406,44.722 25.406,41.506 L25.406,41.370 L25.268,41.370 C24.217,41.370 23.284,40.860 22.705,40.077 C21.123,40.925 19.355,41.370 17.536,41.370 C12.470,41.370 8.081,37.864 6.925,33.063 L3.606,34.051 C2.606,34.349 1.934,35.245 1.934,36.281 L1.934,46.027 L2.071,46.027 L6.628,46.027 L6.628,42.502 C6.628,42.040 6.491,41.594 6.233,41.211 L4.581,38.751 C4.285,38.310 4.405,37.715 4.849,37.421 C5.293,37.127 5.893,37.246 6.190,37.687 L7.842,40.146 C8.313,40.846 8.561,41.661 8.561,42.502 L8.561,59.040 C8.561,59.570 8.128,60.000 7.594,60.000 C7.060,60.000 6.627,59.570 6.627,59.040 L6.627,47.945 L3.038,47.945 L3.038,59.040 C3.038,59.570 2.605,60.000 2.071,60.000 C1.537,60.000 1.105,59.570 1.105,59.040 L1.105,47.945 L0.967,47.945 C0.433,47.945 -0.000,47.515 -0.000,46.986 L-0.000,36.281 C-0.000,34.391 1.226,32.757 3.050,32.214 L11.046,29.834 L11.046,27.183 C8.575,25.362 6.902,22.533 6.658,19.313 C5.362,18.916 4.418,17.716 4.418,16.301 C4.418,15.348 4.847,14.494 5.523,13.916 L5.523,8.630 C5.523,3.871 9.425,-0.000 14.222,-0.000 L23.058,-0.000 C25.014,-0.000 26.679,1.292 27.178,3.131 C28.650,4.122 29.548,5.771 29.548,7.534 L29.548,13.916 C30.224,14.494 30.653,15.349 30.653,16.301 C30.653,17.716 29.709,18.916 28.413,19.313 C28.342,20.245 28.149,21.144 27.855,21.996 C27.873,22.004 27.891,22.010 27.909,22.019 L34.104,25.092 L36.215,24.045 C36.361,21.768 36.451,19.363 36.451,17.397 C36.451,10.221 42.336,4.383 49.569,4.383 C56.802,4.383 62.686,10.221 62.686,17.397 C62.686,24.913 63.770,32.528 63.781,32.604 C63.829,32.936 63.698,33.269 63.437,33.481 C63.327,33.571 60.849,35.546 55.618,36.726 C55.656,36.746 55.694,36.767 55.735,36.784 L63.309,39.789 C64.944,40.438 66.000,41.986 66.000,43.732 L66.000,49.178 C66.000,49.432 65.898,49.676 65.716,49.856 ZM29.725,52.733 C30.790,54.023 32.390,54.794 34.105,54.794 C35.821,54.794 37.420,54.023 38.485,52.733 L37.868,52.529 C37.021,52.249 36.452,51.465 36.452,50.580 L36.452,49.815 C35.705,50.023 34.918,50.137 34.105,50.137 C33.291,50.137 32.505,50.023 31.758,49.815 L31.758,50.580 C31.758,51.465 31.188,52.249 30.341,52.529 L29.725,52.733 ZM24.018,30.814 C24.583,29.453 25.427,28.207 26.510,27.164 L26.510,24.634 C25.828,25.613 24.987,26.474 24.025,27.183 L24.025,30.548 C24.025,30.637 24.022,30.726 24.018,30.814 ZM8.782,32.511 C9.692,36.515 13.330,39.451 17.536,39.451 C19.151,39.451 20.715,39.026 22.092,38.219 C22.092,37.303 22.504,36.435 23.196,35.842 L23.196,34.931 C23.196,34.456 23.228,33.984 23.290,33.519 C22.206,35.577 20.034,36.986 17.536,36.986 C14.389,36.986 11.759,34.753 11.170,31.800 L8.782,32.511 ZM22.092,30.547 L22.092,28.324 C20.705,28.960 19.161,29.315 17.536,29.315 C15.910,29.315 14.367,28.960 12.980,28.324 L12.980,30.546 C12.980,30.550 12.980,30.555 12.980,30.560 C12.987,33.046 15.028,35.068 17.536,35.068 C20.048,35.068 22.092,33.040 22.092,30.547 ZM28.719,16.301 C28.719,15.621 28.162,15.069 27.477,15.069 L26.372,15.069 C25.839,15.069 25.406,14.639 25.406,14.109 C25.406,13.580 25.839,13.150 26.372,13.150 L27.477,13.150 C27.523,13.150 27.569,13.152 27.615,13.154 L27.615,7.534 C27.615,6.314 26.937,5.177 25.845,4.566 C25.588,4.422 25.411,4.170 25.365,3.881 C25.183,2.743 24.213,1.918 23.059,1.918 L14.222,1.918 C10.491,1.918 7.456,4.929 7.456,8.630 L7.456,13.154 C7.502,13.152 7.548,13.151 7.594,13.151 L9.107,13.151 L9.991,10.519 C10.122,10.127 10.492,9.863 10.908,9.863 C10.994,9.863 19.570,9.836 23.731,7.772 C24.209,7.535 24.789,7.728 25.028,8.201 C25.267,8.675 25.073,9.251 24.596,9.488 C20.717,11.412 13.830,11.722 11.608,11.772 L10.721,14.413 C10.589,14.805 10.220,15.069 9.804,15.069 L7.594,15.069 C6.909,15.069 6.352,15.622 6.352,16.301 C6.352,16.981 6.909,17.534 7.594,17.534 C8.128,17.534 8.561,17.963 8.561,18.493 C8.561,23.403 12.587,27.397 17.536,27.397 C22.484,27.397 26.510,23.402 26.510,18.493 C26.510,17.963 26.943,17.534 27.477,17.534 C28.162,17.534 28.719,16.981 28.719,16.301 ZM28.444,24.429 L28.444,27.900 L31.943,26.164 L28.444,24.429 ZM34.105,27.236 L27.909,30.310 C27.773,30.377 27.625,30.411 27.477,30.411 C27.300,30.411 27.124,30.363 26.969,30.268 C26.842,30.190 26.738,30.084 26.661,29.963 C25.675,31.419 25.130,33.147 25.130,34.931 L25.130,35.043 C27.679,34.942 34.687,34.435 39.148,31.906 C39.611,31.644 40.202,31.803 40.467,32.264 C40.732,32.723 40.571,33.309 40.107,33.572 C35.015,36.459 27.268,36.905 24.878,36.974 C24.813,37.046 24.737,37.110 24.650,37.160 C24.259,37.386 24.025,37.781 24.025,38.219 C24.025,38.898 24.583,39.451 25.268,39.451 L26.372,39.451 C26.906,39.451 27.339,39.881 27.339,40.410 L27.339,41.506 C27.339,45.208 30.374,48.219 34.105,48.219 C37.835,48.219 40.870,45.208 40.870,41.506 L40.870,41.389 C40.870,41.381 40.870,41.373 40.870,41.364 L40.870,40.410 C40.870,39.881 41.303,39.451 41.837,39.451 L42.941,39.451 C43.626,39.451 44.184,38.898 44.184,38.219 C44.184,37.781 43.951,37.386 43.560,37.160 C43.262,36.988 43.079,36.672 43.079,36.331 L43.079,34.931 C43.079,33.147 42.535,31.419 41.548,29.963 C41.471,30.084 41.368,30.190 41.240,30.268 C41.085,30.363 40.909,30.411 40.732,30.411 C40.585,30.411 40.436,30.377 40.300,30.310 L34.105,27.236 ZM36.266,26.164 L39.765,27.900 L39.765,24.429 L36.266,26.164 ZM61.788,32.293 C61.534,30.349 60.753,23.838 60.753,17.397 C60.753,11.279 55.736,6.302 49.569,6.302 C43.402,6.302 38.385,11.279 38.385,17.397 C38.385,19.158 38.327,21.057 38.212,23.054 L40.300,22.019 C40.600,21.870 40.955,21.886 41.240,22.061 C41.525,22.235 41.699,22.544 41.699,22.877 L41.699,27.164 C42.886,28.308 43.786,29.695 44.346,31.212 C45.875,32.300 47.676,32.876 49.569,32.876 C51.645,32.876 53.595,32.194 55.206,30.901 C56.772,29.645 57.878,27.888 58.321,25.952 C58.469,25.307 58.543,24.641 58.543,23.973 C58.543,20.297 56.412,19.707 52.327,18.902 C50.213,18.486 47.865,18.023 45.768,16.791 C45.261,18.066 44.017,19.763 40.967,20.520 C40.449,20.648 39.924,20.336 39.794,19.822 C39.665,19.308 39.980,18.787 40.498,18.659 C44.142,17.755 44.184,15.231 44.184,15.206 C44.184,14.837 44.397,14.501 44.732,14.341 C45.067,14.182 45.464,14.226 45.755,14.457 C47.757,16.046 50.272,16.541 52.703,17.020 C56.525,17.773 60.477,18.551 60.477,23.973 C60.477,24.784 60.386,25.592 60.207,26.377 C59.668,28.731 58.324,30.868 56.422,32.393 C55.959,32.764 55.468,33.093 54.954,33.382 L54.954,34.908 C58.704,34.094 60.922,32.856 61.788,32.293 ZM55.017,38.565 C53.804,38.083 53.020,36.935 53.020,35.639 L53.020,34.234 C51.914,34.601 50.748,34.795 49.569,34.795 C47.949,34.795 46.384,34.448 44.951,33.781 C44.992,34.161 45.013,34.545 45.013,34.931 L45.013,35.842 C45.705,36.435 46.117,37.303 46.117,38.219 C46.117,39.949 44.704,41.357 42.964,41.369 C44.409,43.579 46.892,44.931 49.569,44.931 C53.051,44.931 56.102,42.669 57.102,39.392 L55.017,38.565 ZM45.150,20.822 C45.684,20.822 46.117,21.251 46.117,21.781 L46.117,22.876 C46.117,23.406 45.684,23.836 45.150,23.836 C44.617,23.836 44.184,23.406 44.184,22.876 L44.184,21.781 C44.184,21.251 44.617,20.822 45.150,20.822 ZM48.111,26.656 C48.501,27.133 49.019,27.397 49.569,27.397 C50.119,27.397 50.637,27.133 51.027,26.656 C51.364,26.244 51.972,26.181 52.387,26.515 C52.802,26.849 52.865,27.453 52.529,27.864 C51.775,28.786 50.696,29.315 49.569,29.315 C48.441,29.315 47.362,28.786 46.609,27.864 C46.273,27.453 46.336,26.849 46.751,26.515 C47.165,26.181 47.774,26.244 48.111,26.656 ZM53.987,20.822 C54.521,20.822 54.954,21.251 54.954,21.781 L54.954,22.876 C54.954,23.406 54.521,23.836 53.987,23.836 C53.453,23.836 53.020,23.406 53.020,22.876 L53.020,21.781 C53.020,21.251 53.453,20.822 53.987,20.822 ZM37.383,40.278 C36.849,40.278 36.416,39.849 36.416,39.319 C36.416,38.789 36.849,38.360 37.383,38.360 C37.917,38.360 38.350,38.789 38.350,39.319 C38.350,39.849 37.917,40.278 37.383,40.278 ZM37.065,44.302 C36.311,45.224 35.232,45.753 34.105,45.753 C32.977,45.753 31.898,45.224 31.145,44.302 C30.808,43.891 30.872,43.287 31.287,42.953 C31.701,42.620 32.310,42.683 32.646,43.094 C33.037,43.572 33.555,43.835 34.105,43.835 C34.654,43.835 35.172,43.572 35.563,43.094 C35.899,42.682 36.508,42.620 36.923,42.953 C37.337,43.287 37.401,43.891 37.065,44.302 ZM30.809,40.278 C30.275,40.278 29.842,39.849 29.842,39.319 C29.842,38.789 30.275,38.360 30.809,38.360 C31.342,38.360 31.775,38.789 31.775,39.319 C31.775,39.849 31.342,40.278 30.809,40.278 ZM21.954,18.356 C21.420,18.356 20.987,17.927 20.987,17.397 L20.987,16.301 C20.987,15.771 21.420,15.342 21.954,15.342 C22.488,15.342 22.921,15.771 22.921,16.301 L22.921,17.397 C22.921,17.927 22.488,18.356 21.954,18.356 ZM17.536,23.836 C16.408,23.836 15.329,23.307 14.576,22.385 C14.239,21.973 14.303,21.370 14.718,21.036 C15.132,20.702 15.741,20.765 16.077,21.177 C16.468,21.654 16.986,21.918 17.536,21.918 C18.086,21.918 18.603,21.654 18.994,21.177 C19.330,20.765 19.939,20.702 20.354,21.036 C20.768,21.370 20.832,21.973 20.496,22.385 C19.742,23.307 18.663,23.836 17.536,23.836 ZM13.117,18.356 C12.583,18.356 12.151,17.927 12.151,17.397 L12.151,16.301 C12.151,15.771 12.583,15.342 13.117,15.342 C13.651,15.342 14.084,15.771 14.084,16.301 L14.084,17.397 C14.084,17.927 13.651,18.356 13.117,18.356 Z"/>
</svg>
